X:1
T:Ach Gott, wem soll ichs klagen
T:Adam Gumpelzhaimer
T:Source : Neüe Teütsche Geistliche Lieder mit 3 stimmen---Augsburg---V.Schonigk---1591. Editor : André Vierendeels (19/07/16).
T:Notes : Original clefs C1, C2, C4 Editorial accidentals above the staff Note values have been halved in 3-beat measures Text Middle German
T:Ach Gott, wem soll ichs klagen
T:©
T:©
T:©
T:©
T:©
C:Adam Gumpelzhaimer
Z:©
%%score [ 1 2 3 ]
L:1/8
Q:1/4=120
M:4/4
K:F
V:1 treble nm="Soprano" snm="S"
V:2 treble nm="Alto" snm="A"
V:3 treble-8 nm="Tenor" snm="T"
V:1
 G4 d4 | z2 G2 B4 | z2 A2 A2 c2 | c2 A2 G4 | A2 ^c2 d4- | d2 D2 G2 A2 | B2 c2 A4 | G4 d4 | %8
w: Ach Gott,|ach Gott,|ach Gott, wem|soll ichs kla-|gen, mein schmertz,|_ mein schmertz ist|grosz und schwer,|mein leid,|
w: Herr Gott,|Herr Gott,|Herr Gott, lasz|dichs er- bar-|men, in mei-|ner Kranck- heit, in|mei- ner Kranck-|heit grosz,|
 z2 G2 B4 | z2 A2 A2 c2 | c2 A2 G4 | A2 ^c2 d4- | d2 D2 G2 A2 | B2 c2 A4 | z4 z2 d2 | A3 B c2 A2 | %16
w: mein leid,|mein leid kan|ich nicht tra-|gen, ver- wundt,|_ ver- wundt bin|ich so sehr,|des|kan ich nicht ge-|
w: ver- lasz,|ver- lasz doch|nicht, mich Ar-|men, ver- zag-|ten, ver- zag- ten|schwach und blosz,|kein|trost kan ich er-|
 A2 GF G4 |[M:3/4] A4 A2 | G4 F2 | E4 E2 | D4 d2 | c4 B2 | A4 G2 |[M:4/4] ^F3 G A4 | z4 z2 d2 | %25
w: ne- * * *|sen, Gott,|helff mir|dann dar-|von, Gott,|helff mir|dann dar-|von, _ _|frist|
w: lan- * * *|gen, inn|mei- nem|lei- den|schwer, inn|mei- nem|lei- den|schwer, _ _|mein|
 A3 B c2 A2 | A2 GF G4 |[M:3/4] A4 A2 | G4 F2 | E4 E2 | D4 d2 | c4 B2 | A4 G2 |[M:4/4] ^F4 A4 | %34
w: mir, mein Gott, das|le- * * *|ben, ich|werd noch|bus- se|thun, ich|werd noch|bus- se|thun, ich|
w: Gwis- sen ist ge-|fan- * * *|gen, mach|losz mein|lie- ber|Herz, mach|losz mein|lie- ber|Herz, mach|
 B4 B4 | c2 A2 d4- | d4 ^c4 | !fermata!d8 |] %38
w: werd noch|bus- * *|* se|thun.|
w: losz, O-|lie- * *|* ber|Herz.|
V:2
 z4 D4 | G4 z2 G2 | F6 F2 | E2 F2 D4 | E4 z2 F2 | B6 A2 | G2 G2 ^F4 | z4 D4 | G4 z2 G2 | F6 F2 | %10
w: Ach|Gott, ach|Gott, wenn|soll ichs kla-|gen, mein|schmertz ist|grosz und schwer,|mein|leid, mein|leid kan|
w: Herr-|Gott, Herr|Gott, lasz|dichs er- bar-|men, in|mei- ner|Kranck- heit grosz,|ver-|lasz, ver-|lasz doch|
 E2 F2 D4 | E4 z2 F2 | B6 A2 | G2 G2 ^F4 | z2 G2 D3 E | F2 D2 CB,CD | EC F4 E2 |[M:3/4] F4 F2 | %18
w: ich nicht tra-|gen, ver-|wundt bin|ich so sehr,|des kan ich|nicht ge- ne- * * *||sen, Gott,|
w: ,nicht, mich Ar-|men, ver-|zag- ten,|ver- zag- ten,|kein trost kan|ich er- lan- * * *||gen, inn|
 E4 D2 | ^C4 C2 | D4 F2 | A4 G2 | ^F4 G2 |[M:4/4] A3 G ^F4 | z2 G2 D3 E | F2 D2 CB,CD | EC F4 E2 | %27
w: helff mir|dann dar-|von, Gott,|helff mir|dann dar-|von, _ _|frist mir, mein|Gott, das le- * * *||
w: mei- nem|lei- den|schwer, inn|mei- nem|lei- den|schwer, _ _|mein Gwis- sen|ist ge- fan- * * *||
[M:3/4] F4 F2 | E4 D2 | ^C4 C2 | D4 F2 | A4 G2 | ^F4 G2 |[M:4/4]"^-natural" A4 F4 | G4 G4 | %35
w: ben, ich|werd noch|bus- se|thun, ich|werd noch|bus- se|thun, ich|werd noch|
w: gen, mach|losz mein|lie- ber|Herz, mach|losz mein|lie- ber|Herz, mach|losz, O|
 F4 E2 D2 | E4 E4 | !fermata!^F8 |] %38
w: bus- * *|* se|thun.|
w: lie- * *|* ber|Herz.|
V:3
 z8 | z4 G4 | d6 A2 | c2 d2 B4 | A4 z2 D2 | G6 F2 |"^b" E2 C2 D4 | z8 | z4 G4 | d6 A2 | c2 d2 B4 | %11
w: |Ach|Gott, wenn|soll ichs kla-|gen, mein|schmertz ist|grosz und schwer,||mein|leid kan|ich nicht tra-|
w: |Herr|Gott, lasz|dichs er- bar-|men, in|mei- ner|Kranck- heit grosz,||vet-|lasz doch|nicht, mich Ar-|
 A4 z2 D2 | G6 F2 |"^b" E2 C2 D2 d2 | G3 A B2 G2 | FEFG AGAB | c8 |[M:3/4] F4 F2 | c4 d2 | A4 A2 | %20
w: gen, ver-|wundt bin|ich so sehr, des|kan ich nicht ge-|ne- * * * * * * *||sen, Gott,|heff mir|dann dar-|
w: men, ver-|zag- ten,|ver- zag- ten, kein|trost kan mich er-|lan- * * * * * * *||gen, inn|mei- nem|lei- den|
 D4 B2 | F4 G2 | D4 _E2 |[M:4/4] D4 z2 d2 | G3 A B2 G2 | FEFG AGAB | c8 |[M:3/4] F4 F2 | c4 d2 | %29
w: von, Gott,|helff mir|dann dar-|von, frist|mir, mein Gott, das|le- * * * * * * *||ben, ich|werd noch|
w: schwer, inn|mei- nem|lei- den|scwer, mein|Gwis- sen ist ge-|fan- * * * * * * *||gen, mach|losz mein|
 A4 A2 | D4 B2 | F4 G2 | D4 _E2 |[M:4/4] D4 d4 | G4 G4 | A8- | A4 A4 | !fermata!D8 |] %38
w: bus- se|thun, ich|werd noch|bus- se|thun, ich|werd noch|bus-|* se|thun.|
w: lie- ber|Herz, mach|losz mein|lie- ber|Herz, mach|losz, O|lie-|* ber|Herz.|

